X: 190
T: McFadden's Grand-daughter (reel)
N: 130293
C: BB
R: reel
Q: 1/8=380
M: 4/4
L: 1/8
K: A
AF|"E7"EGBd "F#m"cAFA|"A"ceae "D"f2 fg|"A"ac (3c^Bc "F#m"faec|\
"Bm"dcBA "F#m"F2 AF|
"E7"EGBd "F#m"cAFA|"A"ceae "D"f2 fg|"A"a2 (3aga "D"fedc|"Bm"BABc "A"A2 :|
cd| "A"ec (3c^Bc "D"fdfa|"E"gabg "F#m"a2 ga|"Bm"b2 af "A"ec (3c^Bc|\
"F#m"faec "Bm"BABc|
"A"ec (3c^Bc "D"fdfa|"E"gabg "F#m"a2 ga|"E"be (3efe "F#m"aecf|\
"E7"edBG "A"A2 :|
%%%%%%%%%%%%%%%%%%%%%%%%%%%%%%%%%%%%%%%%%%%
